src/Images/nsc_icon.svg

<svg width="130" height="129" viewBox="0 0 130 129" fill="none" xmlns="http://www.w3.org/2000/svg">
<path d="M64.5251 129C48.8755 129.006 33.7573 123.322 21.988 113.007C10.2186 102.693 2.60086 88.4508 0.554149 72.9356C-1.49256 57.4203 2.17143 41.6902 10.8634 28.6763C19.5553 15.6624 32.6822 6.25239 47.798 2.19996C47.8577 2.17585 47.9203 2.15931 47.9841 2.15089C53.3811 0.719609 58.9415 -0.00333734 64.5251 1.15815e-05H64.73C66.3807 0.00534491 68.0141 0.0719627 69.6301 0.199963H69.6451L69.7821 0.210949L69.871 0.218029H69.928C72.4779 0.42991 75.0131 0.792482 77.5201 1.30397C77.5523 1.31045 77.584 1.31926 77.6151 1.33009C89.8585 3.8782 101.096 9.93287 109.959 18.7561C110.022 18.7909 110.081 18.8342 110.132 18.885C118.705 27.4395 124.689 38.2397 127.397 50.044C127.519 50.574 127.634 51.1053 127.741 51.638C127.741 51.66 127.75 51.6811 127.753 51.7041C128.094 53.3994 128.367 55.1099 128.572 56.8359C128.572 56.8789 128.58 56.918 128.587 56.96C128.586 56.9723 128.586 56.9848 128.587 56.9971C128.875 59.4867 129.02 61.9908 129.02 64.4971C129.035 78.0973 124.728 91.3501 116.72 102.343C116.783 102.47 116.809 102.612 116.796 102.753C116.784 102.895 116.732 103.03 116.647 103.144C116.563 103.257 116.448 103.346 116.316 103.398C116.185 103.451 116.041 103.467 115.901 103.443C109.894 111.382 102.128 117.821 93.2147 122.255C84.3009 126.69 74.4809 128.998 64.5251 129ZM64.5251 127.463C74.2718 127.463 83.8852 125.199 92.6068 120.848C101.328 116.497 108.919 110.178 114.781 102.391C111.649 99.0461 104.313 95.4001 96.5981 93.6641C96.2603 94.3466 95.6902 94.8862 94.9902 95.1861C94.2902 95.4859 93.5062 95.5261 92.7791 95.2998L85.0111 92.7681C77.2111 93.4611 69.9631 96.668 65.4291 98.668C64.6591 99.008 63.9771 99.3078 63.3951 99.5518C62.2151 100.045 60.9011 100.683 59.3801 101.424C55.0378 103.68 50.4777 105.489 45.7701 106.824H45.7651C45.6418 106.897 45.5013 106.935 45.3581 106.935H45.3261C42.188 107.733 38.964 108.142 35.7261 108.154C29.0141 108.154 21.4831 106.319 13.2891 101.037C19.106 109.205 26.7907 115.865 35.7031 120.462C44.6154 125.058 54.4972 127.459 64.5251 127.463ZM12.0371 98.3501C24.3791 107.097 35.2711 107.63 44.1251 105.629L37.6251 94.5098L24.1041 102.41L23.6961 101.71C21.5138 97.9759 20.8883 93.5333 21.9549 89.3418C23.0215 85.1504 25.6944 81.5469 29.3961 79.3101L29.5491 78.9912L29.8612 79.0391C31.932 77.8757 34.2297 77.1736 36.5971 76.981L34.319 76.2388C33.683 76.0299 33.1291 75.6261 32.7363 75.084C32.3434 74.5419 32.1315 73.8897 32.1311 73.2202V51.5049C32.1363 50.7343 32.4209 49.9919 32.9322 49.4153C33.4435 48.8387 34.1467 48.4675 34.9111 48.3701L37.2281 48.0769C35.0249 40.6366 34.6577 32.7734 36.1577 25.1602C37.6577 17.5469 40.9803 10.4106 45.8411 4.36207C36.5989 7.2221 28.1409 12.1757 21.1254 18.8377C14.1099 25.4996 8.72596 33.6903 5.39228 42.7725C2.0586 51.8546 0.865164 61.5835 1.90473 71.2022C2.94431 80.8208 6.18885 90.0698 11.3861 98.23C11.4965 98.1992 11.6124 98.1937 11.7254 98.2134C11.8384 98.2331 11.9456 98.2779 12.0391 98.3443L12.0371 98.3501ZM52.1372 85.0982L52.5451 85.7979L39.0231 93.6983L45.7622 105.229C50.2378 103.93 54.5749 102.194 58.7111 100.047C60.1891 99.3279 61.5851 98.6472 62.8051 98.1402C63.3811 97.9002 64.0521 97.6031 64.8101 97.2671C68.8051 95.5001 74.8591 92.822 81.6231 91.667L48.6351 80.9151C50.027 82.1042 51.2092 83.519 52.1322 85.1001L52.1372 85.0982ZM96.9261 80.3491V92.2002C104.468 93.9222 112.087 97.4239 115.709 101.129C123.384 90.4569 127.506 77.6404 127.491 64.4951C127.491 61.9839 127.343 59.4747 127.047 56.981C127.047 56.954 127.041 56.9281 127.037 56.9021L127.031 56.8491C126.931 56.0551 126.823 55.2679 126.697 54.4829C123.87 60.6706 119.75 66.181 114.615 70.6426C109.479 75.1042 103.447 78.4136 96.9251 80.3482L96.9261 80.3491ZM23.5521 89.6382C22.6124 93.1782 23.0242 96.9408 24.7071 100.194L30.7781 96.647C27.5001 90.081 27.8781 84.7761 28.5301 81.8931C26.0848 83.8761 24.3386 86.59 23.5471 89.6372L23.5521 89.6382ZM32.1751 95.8301L37.4921 92.7232C37.4987 92.7182 37.5058 92.7137 37.5131 92.71L37.5371 92.6968L42.8471 89.5972C39.9163 85.2962 35.5452 82.1834 30.522 80.8208C29.903 82.5998 28.4791 88.3511 32.1701 95.8291L32.1751 95.8301ZM32.3161 79.6499C37.1818 81.3081 41.371 84.5133 44.2441 88.7759L50.3181 85.2251C48.427 82.3558 45.5989 80.2312 42.3164 79.2144C39.0338 78.1975 35.5001 78.3512 32.3181 79.6489L32.3161 79.6499ZM96.9271 78.7422C103.511 76.7158 109.557 73.2406 114.622 68.572C119.687 63.9035 123.643 58.1599 126.198 51.763C126.154 51.547 126.107 51.332 126.061 51.117H96.9251L96.9271 78.7422ZM75.3271 62.5769C75.3271 67.4269 78.4021 71.0982 83.6711 71.0982C86.6881 71.0982 88.8771 70.0329 90.2961 67.7849C90.7111 67.2519 90.5331 66.7189 89.9401 66.3069L88.5211 65.302C88.4102 65.2084 88.2815 65.1385 88.1426 65.0965C88.0038 65.0544 87.8577 65.0411 87.7136 65.0576C87.5694 65.0741 87.4302 65.1199 87.3044 65.1922C87.1786 65.2644 87.069 65.3618 86.9821 65.478C86.6405 65.8558 86.2188 66.1526 85.7479 66.3467C85.277 66.5408 84.7687 66.6274 84.2601 66.6001C81.7741 66.6001 80.5931 64.7669 80.5931 62.5769C80.5931 60.3299 81.7151 58.615 84.2021 58.615C84.6641 58.5822 85.1279 58.6438 85.5653 58.7962C86.0026 58.9485 86.4044 59.1883 86.746 59.501C87.278 60.033 87.6941 60.153 88.2831 59.677L89.7031 58.7319C89.8335 58.6515 89.9458 58.5448 90.0325 58.4185C90.1193 58.2921 90.1787 58.1489 90.207 57.9983C90.2352 57.8477 90.2317 57.6929 90.1966 57.5437C90.1615 57.3945 90.0956 57.2543 90.0031 57.1321C89.2941 56.1446 88.3485 55.3509 87.253 54.8237C86.1575 54.2966 84.9472 54.0529 83.7331 54.115C82.6136 54.0747 81.4979 54.2663 80.456 54.678C79.4141 55.0896 78.4687 55.7125 77.679 56.5071C76.8894 57.3017 76.2726 58.251 75.8675 59.2954C75.4624 60.3399 75.2778 61.4567 75.3251 62.5759L75.3271 62.5769ZM60.2961 66.364L59.4691 67.6069C59.379 67.7273 59.3137 67.8645 59.2768 68.0103C59.2399 68.156 59.2322 68.3076 59.2542 68.4563C59.2763 68.6051 59.3276 68.7481 59.4051 68.877C59.4826 69.0058 59.585 69.1179 59.7061 69.207C61.6919 70.5429 64.0624 71.1871 66.4511 71.0401C70.5341 71.0401 73.0781 68.97 73.0781 66.011C73.0781 62.638 71.3031 61.3379 67.4581 60.6279C65.3271 60.2739 64.6782 60.0949 64.7362 59.3279C64.7362 58.6189 65.447 58.3211 66.746 58.3211C67.8627 58.2859 68.9683 58.5526 69.9461 59.093C70.0687 59.176 70.2071 59.2327 70.3526 59.2598C70.4981 59.2868 70.6477 59.2836 70.7919 59.2503C70.9362 59.2169 71.0719 59.1543 71.1909 59.0662C71.3098 58.978 71.4093 58.8664 71.4831 58.738L72.2501 57.6721C72.3536 57.5519 72.4302 57.4108 72.4747 57.2586C72.5192 57.1063 72.5306 56.9461 72.5081 56.7891C72.4857 56.632 72.4299 56.4816 72.3446 56.3479C72.2592 56.2142 72.1462 56.1003 72.0131 56.0139C70.4038 54.836 68.4453 54.2328 66.4521 54.301C62.6071 54.301 59.7071 56.2511 59.7071 59.5061C59.7071 62.4061 61.3631 64.0059 65.3881 64.5349C67.4581 64.8349 68.0501 65.0691 68.0501 65.8941C68.0501 66.7191 67.1631 66.96 65.8601 66.96C64.4575 67.0209 63.0655 66.6935 61.8371 66.0139C61.6363 65.8928 61.4084 65.8241 61.1741 65.814C60.9927 65.8238 60.8165 65.8794 60.6623 65.9756C60.5081 66.0718 60.3807 66.2054 60.2921 66.364H60.2961ZM51.4201 61.5139V69.5591C51.404 69.7135 51.4215 69.8697 51.4715 70.0166C51.5215 70.1636 51.6027 70.2976 51.7097 70.4102C51.8166 70.5227 51.9467 70.611 52.0909 70.6685C52.2351 70.7259 52.3901 70.7514 52.5451 70.7432H55.5631C55.7211 70.7526 55.8793 70.7285 56.0273 70.6724C56.1753 70.6162 56.3097 70.5294 56.4217 70.4175C56.5337 70.3056 56.6206 70.1709 56.6768 70.023C56.7331 69.875 56.7574 69.7171 56.7481 69.5591V61.69C56.7481 56.719 54.4981 54.117 50.3571 54.117C49.3533 54.099 48.3583 54.3076 47.4462 54.7273C46.5342 55.147 45.7285 55.767 45.0891 56.541C45.0395 56.1612 44.9607 55.7856 44.8531 55.418C44.8037 55.1214 44.6397 54.8561 44.3966 54.6792C44.1534 54.5023 43.8505 54.4277 43.5531 54.4719H41.3051C41.1491 54.4585 40.9921 54.4804 40.8457 54.5359C40.6992 54.5914 40.5672 54.6791 40.4593 54.7925C40.3514 54.9059 40.2703 55.042 40.2221 55.1909C40.174 55.3399 40.16 55.498 40.1811 55.6531V69.553C40.1648 69.7073 40.1823 69.8633 40.2321 70.0103C40.282 70.1572 40.3632 70.2918 40.47 70.4043C40.5769 70.5169 40.7068 70.6047 40.851 70.6621C40.9952 70.7196 41.1501 70.7451 41.3051 70.7368H44.3811C44.5361 70.745 44.6911 70.7196 44.8353 70.6621C44.9795 70.6047 45.1096 70.5168 45.2165 70.4043C45.3234 70.2918 45.4047 70.1572 45.4547 70.0103C45.5047 69.8633 45.5222 69.7074 45.5061 69.553V63.2219C45.5061 60.0219 46.8671 58.6079 48.9401 58.6079C50.5251 58.6139 51.4161 59.5609 51.4161 61.5139H51.4201ZM102.542 43.114C104.645 45.1482 106.624 47.3079 108.466 49.5811H125.706C125.047 46.8788 124.208 44.2235 123.195 41.6331C120.632 39.4001 117.363 38.1422 113.964 38.0801C107.806 38.0801 103.2 42.45 102.538 43.113L102.542 43.114ZM96.9261 44.114V49.5779H106.473C95.3231 36.2899 82.444 29.764 68.163 30.147C53.217 30.558 41.1011 38.72 37.6271 43.23C37.929 44.8004 38.3132 46.354 38.7781 47.884L93.3781 40.9761C93.5107 40.9582 93.6444 40.9494 93.7781 40.95C94.6149 40.9539 95.4158 41.2894 96.0057 41.8828C96.5955 42.4762 96.9262 43.2793 96.9251 44.116L96.9261 44.114ZM101.426 42.0569C102.226 41.2709 111.578 32.473 122.076 38.95C117.524 28.7318 110.338 19.9073 101.253 13.3801C92.1687 6.853 81.5125 2.85787 70.376 1.80397H70.3601L70.2441 1.79298L70.1321 1.78297H70.1101C68.3241 1.6263 66.5311 1.54476 64.7311 1.5381H64.5311C59.1234 1.53474 53.738 2.22906 48.5081 3.60402C44.0019 8.68217 40.6627 14.6857 38.7253 21.1926C36.7879 27.6996 36.2995 34.5521 37.2941 41.2681C41.8281 36.4281 53.7421 29.009 68.1231 28.614C68.5131 28.604 68.904 28.5991 69.293 28.5991C80.841 28.6001 91.7821 33.2001 101.419 42.0591L101.426 42.0569ZM100.381 57.8789C100.177 57.8789 99.9818 57.7979 99.8377 57.6538C99.6936 57.5097 99.6126 57.3144 99.6126 57.1106C99.6126 56.9068 99.6936 56.7113 99.8377 56.5672C99.9818 56.423 100.177 56.3421 100.381 56.3421H120.171C120.375 56.3421 120.57 56.423 120.715 56.5672C120.859 56.7113 120.94 56.9068 120.94 57.1106C120.94 57.3144 120.859 57.5097 120.715 57.6538C120.57 57.7979 120.375 57.8789 120.171 57.8789H100.381ZM104.562 54.636C104.358 54.636 104.163 54.5549 104.018 54.4107C103.874 54.2664 103.793 54.0709 103.793 53.867C103.793 53.663 103.874 53.4675 104.018 53.3233C104.163 53.179 104.358 53.0979 104.562 53.0979H112.849C113.053 53.0979 113.249 53.179 113.393 53.3233C113.537 53.4675 113.618 53.663 113.618 53.867C113.618 54.0709 113.537 54.2664 113.393 54.4107C113.249 54.5549 113.053 54.636 112.849 54.636H104.562ZM84.428 21.563C84.4282 20.0362 84.8813 18.5436 85.7297 17.2742C86.5781 16.0048 87.7839 15.0156 89.1945 14.4314C90.6052 13.8473 92.1574 13.6945 93.6549 13.9924C95.1523 14.2904 96.5278 15.0258 97.6074 16.1055C98.6869 17.1852 99.422 18.5609 99.7198 20.0584C100.018 21.5559 99.8647 23.108 99.2803 24.5186C98.696 25.9292 97.7065 27.1347 96.437 27.9829C95.1674 28.8312 93.675 29.2839 92.1481 29.2839C90.1007 29.2829 88.1373 28.4694 86.6893 27.022C85.2412 25.5745 84.427 23.6114 84.4251 21.564L84.428 21.563ZM85.9661 21.563C85.9659 22.7857 86.3283 23.9811 87.0075 24.9978C87.6867 26.0146 88.6521 26.8071 89.7817 27.2752C90.9113 27.7432 92.1543 27.8659 93.3536 27.6275C94.5528 27.389 95.6544 26.8003 96.5191 25.9358C97.3838 25.0713 97.9726 23.9697 98.2113 22.7705C98.4499 21.5713 98.3274 20.3282 97.8596 19.1985C97.3917 18.0688 96.5994 17.1032 95.5827 16.4238C94.5661 15.7445 93.3709 15.3821 92.1481 15.3821C90.5079 15.3821 88.9347 16.033 87.7742 17.1922C86.6138 18.3513 85.9609 19.9238 85.9591 21.564L85.9661 21.563Z" fill="white"/>
</svg>

<svg width="130" height="129" fill="none" xmlns="http://www.w3.org/2000/svg"><path d="M64.525 129A64.5 64.5 0 0 1 47.798 2.2a.764.764 0 0 1 .186-.05A64.378 64.378 0 0 1 64.525 0h.205c1.65.005 3.284.072 4.9.2h.015l.137.01.089.008h.057c2.55.212 5.085.574 7.592 1.086a.722.722 0 0 1 .095.026 64.46 64.46 0 0 1 32.344 17.426.78.78 0 0 1 .173.129 64.341 64.341 0 0 1 17.609 32.753c0 .022.009.043.012.066.341 1.695.614 3.406.819 5.132 0 .043.008.082.015.124a.23.23 0 0 0 0 .037c.288 2.49.433 4.994.433 7.5a64.155 64.155 0 0 1-12.3 37.846.764.764 0 0 1-.073.801.762.762 0 0 1-.331.254.764.764 0 0 1-.415.045A64.44 64.44 0 0 1 64.525 129Zm0-1.537a62.905 62.905 0 0 0 50.256-25.072c-3.132-3.345-10.468-6.99-18.183-8.727A3.2 3.2 0 0 1 92.78 95.3l-7.768-2.532c-7.8.693-15.048 3.9-19.582 5.9-.77.34-1.452.64-2.034.884-1.18.493-2.494 1.131-4.015 1.872a72.313 72.313 0 0 1-13.61 5.4h-.005a.798.798 0 0 1-.407.111h-.032a39.546 39.546 0 0 1-9.6 1.219c-6.712 0-14.243-1.835-22.437-7.117a62.935 62.935 0 0 0 51.236 26.426ZM12.037 98.35c12.342 8.747 23.234 9.28 32.088 7.279l-6.5-11.12-13.52 7.901-.409-.7a16.465 16.465 0 0 1 5.7-22.4l.153-.319.312.048a16.48 16.48 0 0 1 6.736-2.058l-2.278-.742a3.18 3.18 0 0 1-2.188-3.019V51.505a3.182 3.182 0 0 1 2.78-3.135l2.317-.293a48.019 48.019 0 0 1 8.613-43.715A62.893 62.893 0 0 0 11.386 98.23a.77.77 0 0 1 .653.114l-.002.006Zm40.1-13.252.408.7-13.522 7.9 6.74 11.531a71.162 71.162 0 0 0 12.948-5.182c1.478-.72 2.874-1.4 4.094-1.907.576-.24 1.247-.537 2.005-.873 3.995-1.767 10.05-4.445 16.813-5.6L48.635 80.915a16.337 16.337 0 0 1 3.497 4.185l.005-.002Zm44.79-4.749V92.2c7.541 1.722 15.16 5.224 18.782 8.929a62.622 62.622 0 0 0 11.782-36.634c0-2.511-.148-5.02-.444-7.514 0-.027-.006-.053-.01-.079l-.006-.053c-.1-.794-.208-1.581-.334-2.366a47.626 47.626 0 0 1-29.772 25.865l.001.001Zm-73.375 9.29a14.741 14.741 0 0 0 1.155 10.555l6.071-3.547c-3.278-6.566-2.9-11.87-2.248-14.754a14.742 14.742 0 0 0-4.983 7.744l.005.001Zm8.623 6.191 5.317-3.107a.14.14 0 0 1 .021-.013l.024-.013 5.31-3.1a21.831 21.831 0 0 0-12.325-8.776c-.619 1.779-2.043 7.53 1.648 15.008l.005.001Zm.141-16.18a23.543 23.543 0 0 1 11.928 9.126l6.074-3.55a14.844 14.844 0 0 0-18-5.577h-.002Zm64.611-.908a46.13 46.13 0 0 0 29.271-26.979c-.044-.216-.091-.431-.137-.646H96.925l.002 27.625Zm-21.6-16.165c0 4.85 3.075 8.521 8.344 8.521 3.017 0 5.206-1.065 6.625-3.313.415-.533.237-1.066-.356-1.478l-1.419-1.005a1.064 1.064 0 0 0-1.539.176A3.422 3.422 0 0 1 84.26 66.6c-2.486 0-3.667-1.833-3.667-4.023 0-2.247 1.122-3.962 3.61-3.962a3.41 3.41 0 0 1 2.543.886c.532.532.948.652 1.537.176l1.42-.945a1.1 1.1 0 0 0 .3-1.6 7.262 7.262 0 0 0-6.27-3.017 8.122 8.122 0 0 0-8.408 8.46l.002.002Zm-15.03 3.787-.828 1.243a1.14 1.14 0 0 0 .237 1.6 10.886 10.886 0 0 0 6.745 1.833c4.083 0 6.627-2.07 6.627-5.029 0-3.373-1.775-4.673-5.62-5.383-2.13-.354-2.78-.533-2.722-1.3 0-.71.711-1.007 2.01-1.007a6.211 6.211 0 0 1 3.2.772 1.077 1.077 0 0 0 1.537-.355l.767-1.066a1.112 1.112 0 0 0-.237-1.658 8.9 8.9 0 0 0-5.56-1.713c-3.846 0-6.746 1.95-6.746 5.205 0 2.9 1.656 4.5 5.681 5.029 2.07.3 2.662.534 2.662 1.36 0 .824-.887 1.065-2.19 1.065a7.627 7.627 0 0 1-4.023-.946 1.4 1.4 0 0 0-.663-.2 1.077 1.077 0 0 0-.882.55h.004Zm-8.877-4.85v8.045a1.074 1.074 0 0 0 1.125 1.184h3.018a1.122 1.122 0 0 0 1.185-1.184V61.69c0-4.971-2.25-7.573-6.39-7.573a6.677 6.677 0 0 0-5.269 2.424 7.417 7.417 0 0 0-.236-1.123 1.147 1.147 0 0 0-1.3-.946h-2.248a1.044 1.044 0 0 0-1.124 1.181v13.9a1.074 1.074 0 0 0 1.124 1.184h3.076a1.073 1.073 0 0 0 1.125-1.184v-6.331c0-3.2 1.361-4.614 3.434-4.614 1.585.006 2.476.953 2.476 2.906h.004Zm51.122-18.4a72.514 72.514 0 0 1 5.924 6.467h17.24a62.447 62.447 0 0 0-2.511-7.948 14.455 14.455 0 0 0-9.231-3.553c-6.158 0-10.764 4.37-11.426 5.033l.004.001Zm-5.616 1v5.464h9.547c-11.15-13.288-24.029-19.814-38.31-19.431-14.946.411-27.062 8.573-30.536 13.083.302 1.57.686 3.124 1.151 4.654l54.6-6.908a3.162 3.162 0 0 1 3.547 3.14l.001-.002Zm4.5-2.057c.8-.786 10.152-9.584 20.65-3.107a63.103 63.103 0 0 0-51.7-37.146h-.016l-.116-.011-.112-.01h-.022a64.248 64.248 0 0 0-5.379-.245h-.2a62.863 62.863 0 0 0-16.023 2.066 46.486 46.486 0 0 0-11.214 37.664c4.534-4.84 16.448-12.259 30.83-12.654.39-.01.78-.015 1.169-.015 11.548.001 22.49 4.601 32.126 13.46l.007-.002Zm-1.045 15.822a.768.768 0 1 1 0-1.537h19.79a.77.77 0 0 1 .769.769.768.768 0 0 1-.769.768h-19.79Zm4.181-3.243a.771.771 0 0 1-.769-.769.77.77 0 0 1 .769-.77h8.287a.769.769 0 1 1 0 1.539h-8.287ZM84.428 21.563a7.72 7.72 0 1 1 2.261 5.459 7.727 7.727 0 0 1-2.264-5.458l.003-.001Zm1.538 0a6.182 6.182 0 1 0 1.808-4.37 6.189 6.189 0 0 0-1.815 4.371l.007-.001Z" fill="#fff"/></svg>
